X:1
T:Heiress of Northumberland
M:6/8
L:1/8
K:C
 C2 c c2 d| cdc G3| GAc dcd| ece d2 B| c3/2 B/2 c c2 A|G-E G C2 C|\
 DED A2 A| GEC D3|
